Newaita-dark/apps/48/cherrytree.svg

<svg height="48pt" viewBox="0 0 48 48" width="48pt" xmlns="http://www.w3.org/2000/svg" xmlns:xlink="http://www.w3.org/1999/xlink"><linearGradient id="a" gradientTransform="matrix(.00390662 0 0 .093759 30.264611 20.158175)" gradientUnits="userSpaceOnUse" x1="254" x2="254" y1="233.5" y2="254.666672"><stop offset="0" stop-opacity=".27451"/><stop offset="1" stop-opacity="0"/></linearGradient><linearGradient id="b"><stop offset="0" stop-opacity=".313726"/><stop offset=".222222" stop-opacity=".27451"/><stop offset="1" stop-opacity="0"/></linearGradient><radialGradient id="c" cx="450.908936" cy="189.579361" gradientTransform="matrix(.00000026 -.117199 -.210958 -.00000015 71.250028 95.393042)" gradientUnits="userSpaceOnUse" r="21.166656" xlink:href="#b"/><radialGradient id="d" cx="450.908936" cy="189.579361" gradientTransform="matrix(-.00000026 .117199 .210958 .00000015 -8.736201 -11.291223)" gradientUnits="userSpaceOnUse" r="21.166656" xlink:href="#b"/><radialGradient id="e" cx="450.908936" cy="189.579361" gradientTransform="matrix(-.00000026 -.117199 .210958 -.00000015 -8.736201 95.392996)" gradientUnits="userSpaceOnUse" r="21.166656" xlink:href="#b"/><radialGradient id="f" cx="450.908936" cy="189.579361" gradientTransform="matrix(.00000026 .117199 -.210958 .00000015 71.250026 -11.291263)" gradientUnits="userSpaceOnUse" r="21.166656" xlink:href="#b"/><linearGradient id="g" gradientUnits="userSpaceOnUse" x1="30.7607662501" x2="30.7607662501" y1="23.19752937501" y2="4.34415649995"><stop offset="0" stop-color="#66bb6a"/><stop offset="1" stop-color="#aed581"/></linearGradient><linearGradient id="h"><stop offset="0" stop-color="#f44336"/><stop offset="1" stop-color="#ff5252"/></linearGradient><linearGradient id="i" gradientTransform="matrix(.12329 .0711816 -.0711816 .12329 -17.971234 -19.412935)" gradientUnits="userSpaceOnUse" x1="365.125" x2="365.125" xlink:href="#h" y1="233.5" y2="85.333336"/><linearGradient id="j" gradientUnits="userSpaceOnUse" x1="32.615500375" x2="32.615500375" xlink:href="#h" y1="42.0618945" y2="20.96844371297"/><path d="m30.761719 42.050781h.992187v1.984375h-.992187zm0 0" fill="url(#a)"/><path d="m31.753906 42.050781h3.96875v-1.984375h-3.96875zm0 0" fill="url(#c)"/><path d="m30.761719 42.050781h-3.96875v1.984375h3.96875zm0 0" fill="url(#d)"/><path d="m30.761719 42.050781h-3.96875v-1.984375h3.96875zm0 0" fill="url(#e)"/><path d="m31.753906 42.050781h3.96875v1.984375h-3.96875zm0 0" fill="url(#f)"/><path d="m26.273438 4.335938c-.820313.011718-1.476563.679687-1.476563 1.496093 0 5.039063-4.664063 8.015625-7.003906 10.351563-.597657.582031-.605469 1.542968-.015625 2.136718.59375.589844 1.554687.582032 2.136718-.015624 1.339844-1.34375 5.335938-6.160157 6.878907-10.984376 2.976562.992188 4.074219 9.832032 2.546875 14.410157-.273438.789062.148437 1.652343.941406 1.914062.792969.265625 1.648438-.167969 1.902344-.964843 1.554687-6.429688-.429688-12.382813-4.828125-17.90625-.289063-.285157-.675781-.445313-1.082031-.4375zm0 0" fill="url(#g)"/><path d="m26.792969 6.328125c-1.542969 4.824219-5.539063 9.640625-6.878907 10.984375-.582031.597656-1.542968.605469-2.136718.015625-.164063-.164063-.28125-.359375-.351563-.566406-.1875.527343-.070312 1.136719.351563 1.558593.59375.589844 1.554687.582032 2.136718-.015624 1.339844-1.34375 5.335938-6.160157 6.878907-10.984376 1.910156.636719 3.046875 4.507813 3.210937 8.40625.023438-.484374.027344-.980468.015625-1.476562-.003906.164062-.007812.324219-.015625.484375-.164062-3.898437-1.300781-7.769531-3.210937-8.40625zm5.90625 11.53125c-.035157 1.257813-.203125 2.53125-.515625 3.828125-.253906.796875-1.109375 1.230469-1.902344.964844-.457031-.152344-.792969-.503906-.941406-.925782v.003907c-.273438.789062.148437 1.652343.941406 1.914062.792969.265625 1.648438-.167969 1.902344-.964843.394531-1.636719.5625-3.246094.515625-4.820313zm0 0" fill-opacity=".235294"/><path d="m26.273438 4.335938c-.820313.011718-1.476563.679687-1.476563 1.496093 0 5.039063-4.664063 8.015625-7.003906 10.351563-.367188.359375-.511719.859375-.433594 1.328125.054687-.300781.199219-.589844.433594-.820313 2.339843-2.339844 7.003906-5.316406 7.003906-10.355468 0-.816407.65625-1.484376 1.476563-1.496094.40625-.003906.792968.152344 1.082031.4375 3.335937 4.191406 5.28125 8.628906 5.347656 13.332031.074219-4.890625-1.894531-9.496094-5.347656-13.835937-.289063-.285157-.675781-.445313-1.082031-.4375zm3.75 12.628906c-.019532 1.75-.242188 3.4375-.683594 4.765625-.085938.25-.105469.503906-.0625.746093.015625-.078124.035156-.160156.0625-.238281.484375-1.457031.703125-3.34375.683594-5.273437zm0 0" fill="#fff" fill-opacity=".392157"/><path d="m280.22324-168.754416c-8.749164.124988-15.748496 7.249307-15.748496 15.956809 0 53.744868-49.74525 85.491836-74.7012 110.406124-6.374391 6.20774-6.457716 16.456762-.166651 22.78949 6.332729 6.291066 16.58175 6.207741 22.789491-.166651 14.290302-14.331964 56.911232-65.702059 73.367994-117.155479 31.746968 10.582323 43.454183 104.864986 27.164072 153.693657-2.916388 8.415863 1.583182 17.623317 10.040708 20.414717 8.457526 2.833063 17.581654-1.791496 20.289729-10.290684 16.58175-68.576785-4.582896-132.070721-51.495082-190.981762-3.083039-3.041376-7.207645-4.749547-11.540565-4.666221zm0 0" fill="none" stroke="#212121" stroke-linecap="round" stroke-linejoin="round" stroke-width="3" transform="matrix(.093759 0 0 .093759 0 20.158175)"/><path d="m16.027344 15.113281c-8.480469-4.894531-11.589844 5.785157-12.046875 8.957031-.753907 3.6875.851562 8.054688 4.976562 10.433594 4.125 2.382813 8.707031 1.589844 11.523438-.90625 2.519531-1.984375 10.214843-10.015625 1.734375-14.910156-1.742188-1.007812-2.503906-1.019531-3.402344-1.253906-.648438-.660156-1.046875-1.316406-2.785156-2.320313zm0 0" fill="url(#i)"/><path d="m13.949219 17.671875c.386719.722656-.359375 1.878906-1.664063 2.574219-1.304687.695312-2.675781.675781-3.0625-.050782-.386718-.726562.355469-1.878906 1.660156-2.574218 1.304688-.699219 2.679688-.675782 3.066407.050781zm0 0" fill="#fff" fill-opacity=".313726"/><path d="m16.027344 15.113281c-5.152344-2.972656-8.320313-.203125-10.117188 3.144531 1.855469-2.988281 4.925782-5.148437 9.6875-2.398437 1.742188 1.003906 2.136719 1.660156 2.785156 2.320313.898438.230468 1.664063.246093 3.402344 1.25 4.761719 2.75 4.425782 6.488281 2.765625 9.589843 2-3.230469 2.8125-7.359375-2.335937-10.332031-1.742188-1.007812-2.503906-1.019531-3.402344-1.253906-.648438-.660156-1.046875-1.316406-2.785156-2.320313zm0 0" fill="#fcfcfc" fill-opacity=".392157"/><path d="m6.410156 17.402344c-1.496094 2.351562-2.226562 5.253906-2.429687 6.667968-.753907 3.6875.851562 8.054688 4.976562 10.433594 4.125 2.382813 8.707031 1.589844 11.523438-.90625 1.121093-.882812 3.273437-2.96875 4.5625-5.4375-1.289063 2.035156-3.027344 3.699219-4 4.460938-2.816407 2.5-7.398438 3.289062-11.523438.910156-4.125-2.382812-5.730469-6.746094-4.976562-10.433594.175781-1.226562.746093-3.5625 1.867187-5.695312zm0 0" fill-opacity=".235294"/><path d="m270.838443 16.673081c-104.433409.015422-76.200947 115.242479-63.507366 146.977475 12.701166 38.080862 50.819877 69.857678 101.607645 69.833075 50.808599.011478 88.902786-31.748121 101.60592-69.823245 12.689887-31.765337 40.940108-146.985511-63.4933-146.970088-21.466589-.018105-28.564868 3.935764-38.113366 6.562117-9.509934-2.639677-16.689857-6.576479-38.099533-6.579334zm0 0" style="fill:none;stroke-width:3;stroke-linecap:round;stroke-linejoin:round;stroke:#212121;stroke-opacity:.832258" transform="matrix(.0811976 .0468795 -.0468795 .0811976 -5.182472 1.062702)"/><path d="m27.34375 21.722656c-9.796875 0-7.144531 10.800782-5.957031 13.777344 1.191406 3.574219 4.765625 6.550781 9.527343 6.550781 4.761719 0 8.335938-2.976562 9.527344-6.550781 1.191406-2.976562 3.839844-13.777344-5.953125-13.777344-2.011719 0-2.679687.371094-3.574219.617188-.894531-.246094-1.5625-.617188-3.570312-.617188zm0 0" fill="url(#j)"/><path d="m26.820312 24.976562c.699219.433594.628907 1.804688-.152343 3.0625-.78125 1.253907-1.980469 1.921876-2.679688 1.488282-.695312-.4375-.628906-1.804688.152344-3.0625.78125-1.257813 1.980469-1.921875 2.679687-1.488282zm0 0" fill="#fff" fill-opacity=".313726"/><path d="m27.34375 21.722656c-5.949219 0-7.308594 3.984375-7.191406 7.78125.113281-3.515625 1.691406-6.921875 7.191406-6.921875 2.007812 0 2.675781.367188 3.570312.617188.894532-.25 1.5625-.617188 3.574219-.617188 5.496094 0 7.074219 3.40625 7.1875 6.917969.117188-3.792969-1.242187-7.777344-7.1875-7.777344-2.011719 0-2.679687.371094-3.574219.617188-.894531-.246094-1.5625-.617188-3.570312-.617188zm0 0" fill="#fcfcfc" fill-opacity=".392157"/><path d="m20.15625 28.511719c-.117188 2.785156.703125 5.664062 1.230469 6.988281 1.191406 3.574219 4.765625 6.550781 9.527343 6.550781 4.761719 0 8.335938-2.976562 9.527344-6.550781.53125-1.324219 1.347656-4.203125 1.230469-6.988281-.097656 2.40625-.773437 4.71875-1.230469 5.863281-1.191406 3.574219-4.765625 6.550781-9.527344 6.550781-4.761718 0-8.335937-2.976562-9.527343-6.550781-.457031-1.144531-1.132813-3.457031-1.230469-5.863281zm0 0" fill-opacity=".235294"/><path d="m270.857643 16.686208c-104.490022 0-76.201057 115.197333-63.535599 146.944301 12.707119 38.12136 50.828479 69.868328 101.615296 69.868328s88.908176-31.746968 101.615296-69.868328c12.70712-31.746968 40.954422-146.944301-63.493937-146.944301-21.456284 0-28.580604 3.957956-38.121359 6.582705-9.540756-2.624749-16.665075-6.582705-38.079697-6.582705zm0 0" style="fill:none;stroke-width:3;stroke-linecap:round;stroke-linejoin:round;stroke:#212121;stroke-opacity:.832258" transform="matrix(.093759 0 0 .093759 1.948421 20.158175)"/></svg>

<?xml version="1.0" encoding="UTF-8"?>
<svg xmlns="http://www.w3.org/2000/svg" xmlns:xlink="http://www.w3.org/1999/xlink" width="48pt" height="48pt" viewBox="0 0 48 48" version="1.1">
<defs>
<linearGradient id="linear0" gradientUnits="userSpaceOnUse" x1="254" y1="233.5" x2="254" y2="254.666672" gradientTransform="matrix(0.00390662,0,0,0.093759,30.264611,20.158175)">
<stop offset="0" style="stop-color:rgb(0%,0%,0%);stop-opacity:0.27451;"/>
<stop offset="1" style="stop-color:rgb(0%,0%,0%);stop-opacity:0;"/>
</linearGradient>
<radialGradient id="radial0" gradientUnits="userSpaceOnUse" cx="450.908936" cy="189.579361" fx="450.908936" fy="189.579361" r="21.166656" gradientTransform="matrix(0.000000261256,-0.117199,-0.210958,-0.000000152308,71.250028,95.393042)">
<stop offset="0" style="stop-color:rgb(0%,0%,0%);stop-opacity:0.313726;"/>
<stop offset="0.222222" style="stop-color:rgb(0%,0%,0%);stop-opacity:0.27451;"/>
<stop offset="1" style="stop-color:rgb(0%,0%,0%);stop-opacity:0;"/>
</radialGradient>
<radialGradient id="radial1" gradientUnits="userSpaceOnUse" cx="450.908936" cy="189.579361" fx="450.908936" fy="189.579361" r="21.166656" gradientTransform="matrix(-0.000000261256,0.117199,0.210958,0.000000152308,-8.736201,-11.291223)">
<stop offset="0" style="stop-color:rgb(0%,0%,0%);stop-opacity:0.313726;"/>
<stop offset="0.222222" style="stop-color:rgb(0%,0%,0%);stop-opacity:0.27451;"/>
<stop offset="1" style="stop-color:rgb(0%,0%,0%);stop-opacity:0;"/>
</radialGradient>
<radialGradient id="radial2" gradientUnits="userSpaceOnUse" cx="450.908936" cy="189.579361" fx="450.908936" fy="189.579361" r="21.166656" gradientTransform="matrix(-0.000000261256,-0.117199,0.210958,-0.000000152308,-8.736201,95.392996)">
<stop offset="0" style="stop-color:rgb(0%,0%,0%);stop-opacity:0.313726;"/>
<stop offset="0.222222" style="stop-color:rgb(0%,0%,0%);stop-opacity:0.27451;"/>
<stop offset="1" style="stop-color:rgb(0%,0%,0%);stop-opacity:0;"/>
</radialGradient>
<radialGradient id="radial3" gradientUnits="userSpaceOnUse" cx="450.908936" cy="189.579361" fx="450.908936" fy="189.579361" r="21.166656" gradientTransform="matrix(0.000000261256,0.117199,-0.210958,0.000000152308,71.250026,-11.291263)">
<stop offset="0" style="stop-color:rgb(0%,0%,0%);stop-opacity:0.313726;"/>
<stop offset="0.222222" style="stop-color:rgb(0%,0%,0%);stop-opacity:0.27451;"/>
<stop offset="1" style="stop-color:rgb(0%,0%,0%);stop-opacity:0;"/>
</radialGradient>
<linearGradient id="linear1" gradientUnits="userSpaceOnUse" x1="328.083344" y1="32.416668" x2="328.083344" y2="-168.666672" gradientTransform="matrix(0.093759,0,0,0.093759,0,20.158175)">
<stop offset="0" style="stop-color:rgb(40.000001%,73.333335%,41.568628%);stop-opacity:1;"/>
<stop offset="1" style="stop-color:rgb(68.235296%,83.529413%,50.588238%);stop-opacity:1;"/>
</linearGradient>
<linearGradient id="linear2" gradientUnits="userSpaceOnUse" x1="365.125" y1="233.5" x2="365.125" y2="85.333336" gradientTransform="matrix(0.12329,0.0711816,-0.0711816,0.12329,-17.971234,-19.412935)">
<stop offset="0" style="stop-color:rgb(95.686275%,26.274511%,21.176471%);stop-opacity:1;"/>
<stop offset="1" style="stop-color:rgb(100%,32.156864%,32.156864%);stop-opacity:1;"/>
</linearGradient>
<linearGradient id="linear3" gradientUnits="userSpaceOnUse" x1="365.125" y1="233.5" x2="365.125" y2="85.333336" gradientTransform="matrix(0.142363,0,0,0.142363,-19.36479,8.820134)">
<stop offset="0" style="stop-color:rgb(95.686275%,26.274511%,21.176471%);stop-opacity:1;"/>
<stop offset="1" style="stop-color:rgb(100%,32.156864%,32.156864%);stop-opacity:1;"/>
</linearGradient>
</defs>
<g id="surface1">
<path style=" stroke:none;fill-rule:nonzero;fill:url(#linear0);" d="M 30.761719 42.050781 L 31.753906 42.050781 L 31.753906 44.035156 L 30.761719 44.035156 Z M 30.761719 42.050781 "/>
<path style=" stroke:none;fill-rule:nonzero;fill:url(#radial0);" d="M 31.753906 42.050781 L 35.722656 42.050781 L 35.722656 40.066406 L 31.753906 40.066406 Z M 31.753906 42.050781 "/>
<path style=" stroke:none;fill-rule:nonzero;fill:url(#radial1);" d="M 30.761719 42.050781 L 26.792969 42.050781 L 26.792969 44.035156 L 30.761719 44.035156 Z M 30.761719 42.050781 "/>
<path style=" stroke:none;fill-rule:nonzero;fill:url(#radial2);" d="M 30.761719 42.050781 L 26.792969 42.050781 L 26.792969 40.066406 L 30.761719 40.066406 Z M 30.761719 42.050781 "/>
<path style=" stroke:none;fill-rule:nonzero;fill:url(#radial3);" d="M 31.753906 42.050781 L 35.722656 42.050781 L 35.722656 44.035156 L 31.753906 44.035156 Z M 31.753906 42.050781 "/>
<path style=" stroke:none;fill-rule:nonzero;fill:url(#linear1);" d="M 26.273438 4.335938 C 25.453125 4.347656 24.796875 5.015625 24.796875 5.832031 C 24.796875 10.871094 20.132812 13.847656 17.792969 16.183594 C 17.195312 16.765625 17.1875 17.726562 17.777344 18.320312 C 18.371094 18.910156 19.332031 18.902344 19.914062 18.304688 C 21.253906 16.960938 25.25 12.144531 26.792969 7.320312 C 29.769531 8.3125 30.867188 17.152344 29.339844 21.730469 C 29.066406 22.519531 29.488281 23.382812 30.28125 23.644531 C 31.074219 23.910156 31.929688 23.476562 32.183594 22.679688 C 33.738281 16.25 31.753906 10.296875 27.355469 4.773438 C 27.066406 4.488281 26.679688 4.328125 26.273438 4.335938 Z M 26.273438 4.335938 "/>
<path style=" stroke:none;fill-rule:nonzero;fill:rgb(0%,0%,0%);fill-opacity:0.235294;" d="M 26.792969 6.328125 C 25.25 11.152344 21.253906 15.96875 19.914062 17.3125 C 19.332031 17.910156 18.371094 17.917969 17.777344 17.328125 C 17.613281 17.164062 17.496094 16.96875 17.425781 16.761719 C 17.238281 17.289062 17.355469 17.898438 17.777344 18.320312 C 18.371094 18.910156 19.332031 18.902344 19.914062 18.304688 C 21.253906 16.960938 25.25 12.144531 26.792969 7.320312 C 28.703125 7.957031 29.839844 11.828125 30.003906 15.726562 C 30.027344 15.242188 30.03125 14.746094 30.019531 14.25 C 30.015625 14.414062 30.011719 14.574219 30.003906 14.734375 C 29.839844 10.835938 28.703125 6.964844 26.792969 6.328125 Z M 32.699219 17.859375 C 32.664062 19.117188 32.496094 20.390625 32.183594 21.6875 C 31.929688 22.484375 31.074219 22.917969 30.28125 22.652344 C 29.824219 22.5 29.488281 22.148438 29.339844 21.726562 C 29.339844 21.730469 29.339844 21.730469 29.339844 21.730469 C 29.066406 22.519531 29.488281 23.382812 30.28125 23.644531 C 31.074219 23.910156 31.929688 23.476562 32.183594 22.679688 C 32.578125 21.042969 32.746094 19.433594 32.699219 17.859375 Z M 32.699219 17.859375 "/>
<path style=" stroke:none;fill-rule:nonzero;fill:rgb(100%,100%,100%);fill-opacity:0.392157;" d="M 26.273438 4.335938 C 25.453125 4.347656 24.796875 5.015625 24.796875 5.832031 C 24.796875 10.871094 20.132812 13.847656 17.792969 16.183594 C 17.425781 16.542969 17.28125 17.042969 17.359375 17.511719 C 17.414062 17.210938 17.558594 16.921875 17.792969 16.691406 C 20.132812 14.351562 24.796875 11.375 24.796875 6.335938 C 24.796875 5.519531 25.453125 4.851562 26.273438 4.839844 C 26.679688 4.835938 27.066406 4.992188 27.355469 5.277344 C 30.691406 9.46875 32.636719 13.90625 32.703125 18.609375 C 32.777344 13.71875 30.808594 9.113281 27.355469 4.773438 C 27.066406 4.488281 26.679688 4.328125 26.273438 4.335938 Z M 30.023438 16.964844 C 30.003906 18.714844 29.78125 20.402344 29.339844 21.730469 C 29.253906 21.980469 29.234375 22.234375 29.277344 22.476562 C 29.292969 22.398438 29.3125 22.316406 29.339844 22.238281 C 29.824219 20.78125 30.042969 18.894531 30.023438 16.964844 Z M 30.023438 16.964844 "/>
<path style="fill:none;stroke-width:3;stroke-linecap:round;stroke-linejoin:round;stroke:rgb(12.941177%,12.941177%,12.941177%);stroke-opacity:1;stroke-miterlimit:4;" d="M 280.22324 -168.754416 C 271.474076 -168.629428 264.474744 -161.505109 264.474744 -152.797607 C 264.474744 -99.052739 214.729494 -67.305771 189.773544 -42.391483 C 183.399153 -36.183743 183.315828 -25.934721 189.606893 -19.601993 C 195.939622 -13.310927 206.188643 -13.394252 212.396384 -19.768644 C 226.686686 -34.100608 269.307616 -85.470703 285.764378 -136.924123 C 317.511346 -126.3418 329.218561 -32.059137 312.92845 16.769534 C 310.012062 25.185397 314.511632 34.392851 322.969158 37.184251 C 331.426684 40.017314 340.550812 35.392755 343.258887 26.893567 C 359.840637 -41.683218 338.675991 -105.177154 291.763805 -164.088195 C 288.680766 -167.129571 284.55616 -168.837742 280.22324 -168.754416 Z M 280.22324 -168.754416 " transform="matrix(0.093759,0,0,0.093759,0,20.158175)"/>
<path style=" stroke:none;fill-rule:nonzero;fill:url(#linear2);" d="M 16.027344 15.113281 C 7.546875 10.21875 4.4375 20.898438 3.980469 24.070312 C 3.226562 27.757812 4.832031 32.125 8.957031 34.503906 C 13.082031 36.886719 17.664062 36.09375 20.480469 33.597656 C 23 31.613281 30.695312 23.582031 22.214844 18.6875 C 20.472656 17.679688 19.710938 17.667969 18.8125 17.433594 C 18.164062 16.773438 17.765625 16.117188 16.027344 15.113281 Z M 16.027344 15.113281 "/>
<path style=" stroke:none;fill-rule:nonzero;fill:rgb(100%,100%,100%);fill-opacity:0.313726;" d="M 13.949219 17.671875 C 14.335938 18.394531 13.589844 19.550781 12.285156 20.246094 C 10.980469 20.941406 9.609375 20.921875 9.222656 20.195312 C 8.835938 19.46875 9.578125 18.316406 10.882812 17.621094 C 12.1875 16.921875 13.5625 16.945312 13.949219 17.671875 Z M 13.949219 17.671875 "/>
<path style=" stroke:none;fill-rule:nonzero;fill:rgb(98.823529%,98.823529%,98.823529%);fill-opacity:0.392157;" d="M 16.027344 15.113281 C 10.875 12.140625 7.707031 14.910156 5.910156 18.257812 C 7.765625 15.269531 10.835938 13.109375 15.597656 15.859375 C 17.339844 16.863281 17.734375 17.519531 18.382812 18.179688 C 19.28125 18.410156 20.046875 18.425781 21.785156 19.429688 C 26.546875 22.179688 26.210938 25.917969 24.550781 29.019531 C 26.550781 25.789062 27.363281 21.660156 22.214844 18.6875 C 20.472656 17.679688 19.710938 17.667969 18.8125 17.433594 C 18.164062 16.773438 17.765625 16.117188 16.027344 15.113281 Z M 16.027344 15.113281 "/>
<path style=" stroke:none;fill-rule:nonzero;fill:rgb(0%,0%,0%);fill-opacity:0.235294;" d="M 6.410156 17.402344 C 4.914062 19.753906 4.183594 22.65625 3.980469 24.070312 C 3.226562 27.757812 4.832031 32.125 8.957031 34.503906 C 13.082031 36.886719 17.664062 36.09375 20.480469 33.597656 C 21.601562 32.714844 23.753906 30.628906 25.042969 28.160156 C 23.753906 30.195312 22.015625 31.859375 21.042969 32.621094 C 18.226562 35.121094 13.644531 35.910156 9.519531 33.53125 C 5.394531 31.148438 3.789062 26.785156 4.542969 23.097656 C 4.71875 21.871094 5.289062 19.535156 6.410156 17.402344 Z M 6.410156 17.402344 "/>
<path style="fill:none;stroke-width:3;stroke-linecap:round;stroke-linejoin:round;stroke:rgb(12.941177%,12.941177%,12.941177%);stroke-opacity:0.832258;stroke-miterlimit:4;" d="M 270.838443 16.673081 C 166.405034 16.688503 194.637496 131.91556 207.331077 163.650556 C 220.032243 201.731418 258.150954 233.508234 308.938722 233.483631 C 359.747321 233.495109 397.841508 201.73551 410.544642 163.660386 C 423.234529 131.895049 451.48475 16.674875 347.051342 16.690298 C 325.584753 16.672193 318.486474 20.626062 308.937976 23.252415 C 299.428042 20.612738 292.248119 16.675936 270.838443 16.673081 Z M 270.838443 16.673081 " transform="matrix(0.0811976,0.0468795,-0.0468795,0.0811976,-5.182472,1.062702)"/>
<path style=" stroke:none;fill-rule:nonzero;fill:url(#linear3);" d="M 27.34375 21.722656 C 17.546875 21.722656 20.199219 32.523438 21.386719 35.5 C 22.578125 39.074219 26.152344 42.050781 30.914062 42.050781 C 35.675781 42.050781 39.25 39.074219 40.441406 35.5 C 41.632812 32.523438 44.28125 21.722656 34.488281 21.722656 C 32.476562 21.722656 31.808594 22.09375 30.914062 22.339844 C 30.019531 22.09375 29.351562 21.722656 27.34375 21.722656 Z M 27.34375 21.722656 "/>
<path style=" stroke:none;fill-rule:nonzero;fill:rgb(100%,100%,100%);fill-opacity:0.313726;" d="M 26.820312 24.976562 C 27.519531 25.410156 27.449219 26.78125 26.667969 28.039062 C 25.886719 29.292969 24.6875 29.960938 23.988281 29.527344 C 23.292969 29.089844 23.359375 27.722656 24.140625 26.464844 C 24.921875 25.207031 26.121094 24.542969 26.820312 24.976562 Z M 26.820312 24.976562 "/>
<path style=" stroke:none;fill-rule:nonzero;fill:rgb(98.823529%,98.823529%,98.823529%);fill-opacity:0.392157;" d="M 27.34375 21.722656 C 21.394531 21.722656 20.035156 25.707031 20.152344 29.503906 C 20.265625 25.988281 21.84375 22.582031 27.34375 22.582031 C 29.351562 22.582031 30.019531 22.949219 30.914062 23.199219 C 31.808594 22.949219 32.476562 22.582031 34.488281 22.582031 C 39.984375 22.582031 41.5625 25.988281 41.675781 29.5 C 41.792969 25.707031 40.433594 21.722656 34.488281 21.722656 C 32.476562 21.722656 31.808594 22.09375 30.914062 22.339844 C 30.019531 22.09375 29.351562 21.722656 27.34375 21.722656 Z M 27.34375 21.722656 "/>
<path style=" stroke:none;fill-rule:nonzero;fill:rgb(0%,0%,0%);fill-opacity:0.235294;" d="M 20.15625 28.511719 C 20.039062 31.296875 20.859375 34.175781 21.386719 35.5 C 22.578125 39.074219 26.152344 42.050781 30.914062 42.050781 C 35.675781 42.050781 39.25 39.074219 40.441406 35.5 C 40.972656 34.175781 41.789062 31.296875 41.671875 28.511719 C 41.574219 30.917969 40.898438 33.230469 40.441406 34.375 C 39.25 37.949219 35.675781 40.925781 30.914062 40.925781 C 26.152344 40.925781 22.578125 37.949219 21.386719 34.375 C 20.929688 33.230469 20.253906 30.917969 20.15625 28.511719 Z M 20.15625 28.511719 "/>
<path style="fill:none;stroke-width:3;stroke-linecap:round;stroke-linejoin:round;stroke:rgb(12.941177%,12.941177%,12.941177%);stroke-opacity:0.832258;stroke-miterlimit:4;" d="M 270.857643 16.686208 C 166.367621 16.686208 194.656586 131.883541 207.322044 163.630509 C 220.029163 201.751869 258.150523 233.498837 308.93734 233.498837 C 359.724157 233.498837 397.845516 201.751869 410.552636 163.630509 C 423.259756 131.883541 451.507058 16.686208 347.058699 16.686208 C 325.602415 16.686208 318.478095 20.644164 308.93734 23.268913 C 299.396584 20.644164 292.272265 16.686208 270.857643 16.686208 Z M 270.857643 16.686208 " transform="matrix(0.093759,0,0,0.093759,1.948421,20.158175)"/>
</g>
</svg>
